X:194
T:Ivy Leaf, The
R:reel
S:Serge Grando
H:2 other versions: #190. Version in Emix: #696
Z:id:hn-reel-194
M:C|
K:Amix
~A3e cAec|Ae~e2 dBGB|A2ed (3Bcd ed|BGEF GA (3BAG|
~A3e ce~e2|Ae~e2 dBGB|A2ed (3Bcd ed|BGEF GA (3Bcd||
~e3f ed (3Bcd|edge dG (3Bcd|eaag (3efg d=c|BGEF GA (3Bcd|
~e3f ed (3Bcd|e2ge dBGB|~A3B =cBcd|~e3f gedB||

